X:1
T:Lobet den Herrn
T:Karl Gotthelf Gläser
T:Aus dem 103. Psalm
T:Lobet den Herrn
T:CPDL - Creative Commons Attribution Non Commercial 3.0
T:CPDL - Creative Commons Attribution Non Commercial 3.0
T:CPDL - Creative Commons Attribution Non Commercial 3.0
T:CPDL - Creative Commons Attribution Non Commercial 3.0
C:Karl Gotthelf Gläser
Z:CPDL - Creative Commons Attribution Non Commercial 3.0
%%score [ ( 1 2 ) 3 4 ]
L:1/8
Q:1/4=120
M:3/2
K:C
V:1 treble nm="Sopran\nAlt"
V:2 treble 
V:3 treble-8 nm="Tenor"
V:4 bass nm="Bass"
V:1
!p!"^Langsam und kräftig"!<(! c4 c4 c4!<)! | d8 z4 |!mf!!<(! d4 d4 d4!<)! | e8 z4 |!f! f4 e4 z4 | %5
w: Lo- bet den|Herrn!|Lo- bet den|Herrn!|Lo- bet,|
 a4 g4 z4 |!ff! c4 d4 B4 | !breath!c8 d4 |!>(! !fermata!d8!>)! || %9
w: lo- bet,|lo- bet den|Herrn, den|Herrn!|
[M:4/4][Q:1/4=100]"^Etwas lebhafter""^Halbchor"!mf! B2 |!<(! d4 d3 d!<)! | %11
w: Ja!|lo- be den|
!f! !breath!g4!mf! d2 B2 |!<(! A2 !breath!B2!<)! c2 B>A |!>(! !breath!B4!>)!!p! d2!<(! d2!<)! | %14
w: Herrn, mei- ne|See- le, lo- be den|Herrn, und ver-|
 !>!d3 c !breath!B2!mf! d2 | !>!g3!>(! ^f !breath!e2!>)! e2 |!p! d2 B2 A2 B>c | %17
w: giss es nie, ver-|giss es nie, was|er dir Gu- tes ge-|
!>(! !breath!B4!>)!"^Chor"!mf! d2 d2 | !>!d3 c !breath!B2!f! d2 | !>!g3!>(! ^f !breath!e2!>)! e2 | %20
w: tan, und ver-|giss es nie, ver-|giss es nie, was|
 d2 B2!mf! c2!>(! B>A!>)! | G6 z2 |!f!!<(! G4 A2!<)! B2 | c6!p!"^Soli" e2 | !>!e2 d>c !>!d2 c>B | %25
w: er dir Gu- tes ge-|tan.|Dan- ket dem|Herrn! Wir|dan- ken, wir dan- ken dem|
 c6 z2 |"^Chor"!<(! c4 d2!<)! e2 | f6!p!"^Soli" c2 | !>!c2 _B>A !>!B2 A>G | %29
w: Herrn!|Dan- ket dem|Herrn! Wir|dan- ken, wir dan- ken dem|
 !breath!A2!mf! f2!<(! d2 c2!<)! |!>(! B4!>)! !breath!c2!f! e2 | d2 G2 c2 !breath!de | %32
w: Herrn, denn er ist|freund- lich und|sei- ne Gü- te währt|
[Q:1/4=120]"^rit." d6!>(! d2 | d6!>)! z2 ||[M:3/2][Q:1/4=120]"^Langsam"!f!"^Chor" f4 e4 d4 | %35
w: e- wig-|lich!|Lo- bet den|
 !breath!!^![cg]12 |!ff! f4 e4 d4 | !breath!!^![cg]8 e4 | d12- | d8 d4 |!>(! !fermata!c12!>)! | %41
w: Herrn!|Dan- ket dem|Herrn in|E-|* wig-|keit!|
!f!!>(! c12 | c8 z4!>)! |!p!!>(! c12!>)! |!pp! !fermata!c12 |] %45
w: A-|men!|A-|men!|
V:2
 G4 G4 G4 | G8 x4 | G4 G4 G4 | G8 x4 | F4 G4 x4 | (A2 B2) c4 x4 | G4 G4 G4 | G8 ^F4 | G8 || %9
[M:4/4] G2 | ^F4 F3 F | G4 G2 G2 | ^F2 G2 A2 G>F | G4 B2 B2 | B3 A G2 G2 | G3 G G2 G2 | %16
 G2 G2 ^F2 G>A | G4 B2 B2 | B3 A G2 G2 | G3 G G2 G2 | G2 G2 A2 G>^F | G6 x2 | G4 A2 B2 | c6 G2 | %24
 G2 F>E F2 E>D | E6 x2 | C4 D2 E2 | F6 A2 | A2 G>F G2 F>E | F2 A2 A2 A2 | G4 G2 G2 | G2 G2 G2 GG | %32
 (G4 ^F2) A2 | G6 x2 ||[M:3/2] =F4 G4 G4 | G12 | A4 c4 G4 | G8 G4 | (A12 | G8) G4 | G12 | A12 | %42
 G8 x4 | F12 | E12 |] %45
V:3
!p!!<(! e4 e4 c4!<)! | B8 z4 |!mf!!<(! B4 d4 B4!<)! | c8 z4 |!f! c4 c4 !^!c4- |!<(! c4!<)! c4 z4 | %6
w: Lo- bet den|Herrn!|Lo- bet den|Herrn!|Lo- bet, lo-|* bet,|
!ff! e4 f4 d4 | !breath!e8 c4 |!>(! !fermata!B8!>)! ||[M:4/4]!mf! d2 |!<(! d4 d3 d!<)! | %11
w: lo- bet den|Herrn, den|Herrn!|Ja!|lo- be den|
!f! !breath!d4!mf! Bc dB |!<(! d2 !breath!d2!<)! d2 d>d |!>(! !breath!d4!>)!!p! B2!<(! d2!<)! | %14
w: Herrn, mei- * ne _|See- le, lo- be den|Herrn, und ver-|
 !>!g3 d !breath!d2!mf! B2 | !>!e3!>(! d !breath!c2!>)! c2 |!p! B2 d2 d2 d>d | %17
w: giss es nie, ver-|giss es nie, was|er dir Gu- tes ge-|
!>(! !breath!d4!>)!!mf! B2 d2 | !>!g3 d !breath!d2!f! =f2 | !>!e3!>(! d !breath!c2!>)! c2 | %20
w: tan, und ver-|giss es nie, ver-|giss es nie, was|
 B2 d2!mf! d2!>(! d>c!>)! | B6 z2 |!f!!<(! G4 A2!<)! B2 | c6!p! G2 | G4 G2 G2 | G6 z2 | %26
w: er dir Gu- tes ge-|tan.|Dan- ket dem|Herrn! Wir|dan- ken dem|Herrn!|
!<(! c4 d2!<)! e2 | f6!p! c2 | c4 c2 c2 | !breath!c2!mf! c2!<(! d2 _e2!<)! | %30
w: Dan- ket dem|Herrn! Wir|dan- ken dem|Herrn, denn er ist|
!>(! d4!>)! !breath!c2!f! c2 | B2 B2 c2 !breath!Bc | (B4 A2)!>(! c2 | B6!>)! z2 || %34
w: freund- lich und|sei- ne Gü- te währt|e- * wig-|lich!|
[M:3/2]!f! c4 c4 B4 | !breath!!^!c12 |!ff! c4 c4 B4 | !breath!!^!c8 c4 | (c12 | B8) f4 | %40
w: Lo- bet den|Herrn!|Dan- ket dem|Herrn in|E-|* wig-|
!>(! !fermata!e12!>)! |!f!!>(! f12 | e8 z4!>)! |!p!!>(! A12!>)! |!pp! !fermata!G12 |] %45
w: keit!|A-|men!|A-|men!|
V:4
!p!!<(! C,4 C,4 E,4!<)! | G,8 z4 |!mf!!<(! G,4 B,4 G,4!<)! | C8 z4 |!f! A,4 G,4 z4 | %5
w: |||||
 F,4 E,4!ff! !^!G,4- | G,4 G,4 G,4 | !breath!C8 A,4 |!>(! !fermata!G,8!>)! ||[M:4/4]!mf! B,2 | %10
w: lo- bet, lo-|* bet den|Herrn, den|Herrn!||
!<(! C4 C3 C!<)! |!f! !breath!B,4!mf! G,A, B,G, |!<(! D,2 !breath!D,2!<)! D,2 D,>D, | %13
w: |||
 !breath!G,4!p! G,2!<(! G,2!<)! | !>!G,3 G, !breath!G,2!mf! G,2 | %15
w: ||
 !>!C,3!>(! C, !breath!C,2!>)! C,2 |!p! D,2 D,2 D,2 D,>D, |!>(! !breath!G,4!>)!!mf! G,2 G,2 | %18
w: |||
 !>!G,3 G, !breath!G,2!f! B,2 | !>!C3!>(! C, !breath!C,2!>)! C,2 | D,2 G,B,!mf! D2!>(! D,>D,!>)! | %21
w: |||
 G,6 z2 |!f!!<(! G,4 A,2!<)! B,2 | C6!p! C,2 | C,4 G,,2 G,,2 | C,6 z2 |!<(! C,4 D,2!<)! E,2 | %27
w: ||||||
 F,6!p! F,2 | F,4 C,2 C,2 | !breath!F,2!mf! F,2!<(! F,2 ^F,2!<)! | %30
w: |||
!>(! (G,2 =F,2)!>)! !breath!E,2!f! C,2 | G,2 F,2 E,2 !breath!D,C, | D,6!>(! D,2 | G,6!>)! z2 || %34
w: ||||
[M:3/2]!f! A,4 G,4 F,4 | !breath!!^!E,12 |!ff! A,4 G,4 F,4 | !breath!!^!E,8 E,4 | (F,12 | %39
w: |||||
 G,8) G,4 |!>(! !fermata![C,C]12!>)! |!f!!>(! [C,C]12 | [C,C]8 z4!>)! |!p!!>(! C,12!>)! | %44
w: |||||
!pp! !fermata!C,12 |] %45
w: |

